icons/1_Primary/Kaseya.svg

<svg width="1024" height="1024" fill="none" xmlns="http://www.w3.org/2000/svg"><g clip-path="url(#a)"><path d="M512 1024c282.77 0 512-229.23 512-512S794.77 0 512 0 0 229.23 0 512s229.23 512 512 512Z" fill="#728DBE"/><path d="M418.056 463.724s50.294-29.52 131.201-58.676c43.369-15.307 86.373-22.96 117.351-26.969-17.129-5.102-33.529-9.476-45.556-12.756-38.631-10.569-94.026-23.689-141.04-30.978-2.187 11.298-7.654 29.156-21.138 55.396-18.222 35.716-40.818 73.983-40.818 73.983Zm-22.231 41.547c-9.111 2.551-39.725 81.271-55.396 125.005 28.791 19.68 58.312 37.537 86.009 49.564 55.396 24.418 72.525 14.213 106.783-1.093 24.418-10.934 63.049-37.174 96.943-61.591-41.183-26.969-92.57-59.405-122.454-73.254-55.396-26.969-98.765-43.005-111.885-38.631Zm47.378-174.935c-42.276-2.915-48.836 6.925-57.218 12.392-21.503 12.026-111.885 65.6-155.618 103.502-41.547 36.08-34.259 58.676-14.943 81.272 15.671 18.222 43.005 40.089 85.645 73.618 2.187 1.458 4.009 2.915 5.831 4.373 17.129-37.902 54.302-120.267 72.525-158.534 21.138-45.191 50.658-94.756 63.778-116.623Zm369.913 94.756c-14.943-7.653-27.698-12.026-39.361-15.671-5.831-1.822-21.137-6.195-40.089-12.027-33.893 4.374-89.653 12.756-143.956 25.876-56.124 13.485-150.516 59.405-150.516 59.405s119.174 38.631 231.059 103.503c4.009-2.916 7.289-5.467 10.204-8.383 34.623-28.427 122.454-101.68 141.405-133.387 4.738-8.018.729-14.578-8.746-19.316Z" fill="#fff"/></g><defs><clipPath id="a"><path fill="#fff" d="M0 0h1024v1024H0z"/></clipPath></defs></svg>

<svg width="1024" height="1024" viewBox="0 0 1024 1024" fill="none" xmlns="http://www.w3.org/2000/svg">
<g clip-path="url(#clip0_2_2577)">
<path d="M512 1024C794.77 1024 1024 794.77 1024 512C1024 229.23 794.77 0 512 0C229.23 0 0 229.23 0 512C0 794.77 229.23 1024 512 1024Z" fill="#728DBE"/>
<path d="M418.056 463.724C418.056 463.724 468.35 434.204 549.257 405.048C592.626 389.741 635.63 382.088 666.608 378.079C649.479 372.977 633.079 368.603 621.052 365.323C582.421 354.754 527.026 341.634 480.012 334.345C477.825 345.643 472.358 363.501 458.874 389.741C440.652 425.457 418.056 463.724 418.056 463.724ZM395.825 505.271C386.714 507.822 356.1 586.542 340.429 630.276C369.22 649.956 398.741 667.813 426.438 679.84C481.834 704.258 498.963 694.053 533.221 678.747C557.639 667.813 596.27 641.573 630.164 617.156C588.981 590.187 537.594 557.751 507.71 543.902C452.314 516.933 408.945 500.897 395.825 505.271ZM443.203 330.336C400.927 327.421 394.367 337.261 385.985 342.728C364.482 354.754 274.1 408.328 230.367 446.23C188.82 482.31 196.108 504.906 215.424 527.502C231.095 545.724 258.429 567.591 301.069 601.12C303.256 602.578 305.078 604.035 306.9 605.493C324.029 567.591 361.202 485.226 379.425 446.959C400.563 401.768 430.083 352.203 443.203 330.336ZM813.116 425.092C798.173 417.439 785.418 413.066 773.755 409.421C767.924 407.599 752.618 403.226 733.666 397.394C699.773 401.768 644.013 410.15 589.71 423.27C533.586 436.755 439.194 482.675 439.194 482.675C439.194 482.675 558.368 521.306 670.253 586.178C674.262 583.262 677.542 580.711 680.457 577.795C715.08 549.368 802.911 476.115 821.862 444.408C826.6 436.39 822.591 429.83 813.116 425.092Z" fill="white"/>
</g>
<defs>
<clipPath id="clip0_2_2577">
<rect width="1024" height="1024" fill="white"/>
</clipPath>
</defs>
</svg>
